src/assets/icons/weeks,fancy,33.svg

<svg width="48" height="48" viewBox="0 0 48 48" fill="none" xmlns="http://www.w3.org/2000/svg">
<rect opacity="0.2" x="4" y="6" width="40" height="40" rx="4" fill="black"/>
<path d="M14.7205 41.2784C19.2944 41.2784 22.5657 38.7628 22.5558 35.2827C22.5657 32.7472 20.9549 30.9375 17.962 30.5597V30.4006C20.239 29.9929 21.81 28.3821 21.8001 26.0952C21.81 22.8835 18.9961 20.358 14.7802 20.358C10.604 20.358 7.462 22.804 7.40234 26.3239H11.5288C11.5785 24.7727 13.0004 23.7685 14.7603 23.7685C16.5004 23.7685 17.6637 24.8224 17.6538 26.3537C17.6637 27.9545 16.3015 29.0384 14.3427 29.0384H12.4435V32.2003H14.3427C16.6495 32.2003 18.0913 33.3537 18.0813 34.9943C18.0913 36.6151 16.6992 37.7287 14.7305 37.7287C12.8313 37.7287 11.4094 36.7344 11.3299 35.2429H6.99467C7.06428 38.8026 10.2461 41.2784 14.7205 41.2784ZM33.1776 41.2784C37.7514 41.2784 41.0227 38.7628 41.0128 35.2827C41.0227 32.7472 39.4119 30.9375 36.419 30.5597V30.4006C38.696 29.9929 40.267 28.3821 40.2571 26.0952C40.267 22.8835 37.4531 20.358 33.2372 20.358C29.0611 20.358 25.919 22.804 25.8594 26.3239H29.9858C30.0355 24.7727 31.4574 23.7685 33.2173 23.7685C34.9574 23.7685 36.1207 24.8224 36.1108 26.3537C36.1207 27.9545 34.7585 29.0384 32.7997 29.0384H30.9006V32.2003H32.7997C35.1065 32.2003 36.5483 33.3537 36.5384 34.9943C36.5483 36.6151 35.1562 37.7287 33.1875 37.7287C31.2884 37.7287 29.8665 36.7344 29.7869 35.2429H25.4517C25.5213 38.8026 28.7031 41.2784 33.1776 41.2784Z" fill="black"/>
<g opacity="0.4">
<path d="M10 4C10 2.89543 10.8954 2 12 2C13.1046 2 14 2.89543 14 4V8C14 9.10457 13.1046 10 12 10C10.8954 10 10 9.10457 10 8V4Z" fill="black"/>
<path d="M34 4C34 2.89543 34.8954 2 36 2C37.1046 2 38 2.89543 38 4V8C38 9.10457 37.1046 10 36 10C34.8954 10 34 9.10457 34 8V4Z" fill="black"/>
</g>
<path fill-rule="evenodd" clip-rule="evenodd" d="M10 6.00869C7.52043 6.04456 6.11466 6.22849 5.17157 7.17157C4 8.34315 4 10.2288 4 14V16H44V14C44 10.2288 44 8.34315 42.8284 7.17157C41.8853 6.22849 40.4796 6.04456 38 6.00869V8C38 9.10457 37.1046 10 36 10C34.8954 10 34 9.10457 34 8V6H14V8C14 9.10457 13.1046 10 12 10C10.8954 10 10 9.10457 10 8V6.00869Z" fill="black"/>
</svg>

<svg xmlns="http://www.w3.org/2000/svg" width="48" height="48" fill="none" viewBox="0 0 48 48">
  <rect width="40" height="40" x="4" y="6" fill="#000" opacity=".2" rx="4"/>
  <path fill="#000" d="M14.72 41.278c4.574 0 7.846-2.515 7.836-5.995.01-2.536-1.601-4.346-4.594-4.723v-.16c2.277-.407 3.848-2.018 3.838-4.305.01-3.211-2.804-5.737-7.02-5.737-4.176 0-7.318 2.446-7.378 5.966h4.127c.05-1.551 1.471-2.556 3.231-2.556 1.74 0 2.904 1.054 2.894 2.586.01 1.6-1.352 2.684-3.311 2.684h-1.9V32.2h1.9c2.306 0 3.748 1.154 3.738 2.794.01 1.621-1.382 2.735-3.35 2.735-1.9 0-3.322-.995-3.401-2.486H6.995c.07 3.56 3.251 6.035 7.725 6.035zm18.458 0c4.573 0 7.845-2.515 7.835-5.995.01-2.536-1.601-4.346-4.594-4.723v-.16c2.277-.407 3.848-2.018 3.838-4.305.01-3.211-2.804-5.737-7.02-5.737-4.176 0-7.318 2.446-7.378 5.966h4.127c.05-1.551 1.471-2.556 3.231-2.556 1.74 0 2.904 1.054 2.894 2.586.01 1.6-1.352 2.684-3.311 2.684h-1.9V32.2h1.9c2.306 0 3.748 1.154 3.738 2.794.01 1.621-1.382 2.735-3.35 2.735-1.9 0-3.322-.995-3.401-2.486h-4.335c.07 3.56 3.251 6.035 7.726 6.035z"/>
  <g opacity=".4">
    <path fill="#000" d="M10 4a2 2 0 114 0v4a2 2 0 11-4 0V4zM34 4a2 2 0 114 0v4a2 2 0 11-4 0V4z"/>
  </g>
  <path fill="#000" fill-rule="evenodd" d="M10 6.009c-2.48.036-3.885.22-4.828 1.163C4 8.343 4 10.229 4 14v2h40v-2c0-3.771 0-5.657-1.172-6.828-.943-.944-2.348-1.127-4.828-1.163V8a2 2 0 11-4 0V6H14v2a2 2 0 11-4 0V6.009z" clip-rule="evenodd"/>
</svg>
